X:105
T: Die schne Schferin (1-30), S. 79f
N: K1079
O: Luxemburg
S: KINTZELE, Guillaume: An der Ucht, Bd. 1, Luxemburg 1926]
N: in der Quelle mit einer 2. Stimme versehen
R: Liebesklage]
M: 4/4
L: 1/16
K: Bb
F2 | B6F2D2F2B2B2 | A2G2G4z4
c2d2 | e6c2A2F2d2c2 | B8z4
F4 | B6F2D2F2B2B2 | A2G2G4z4
c2d2 | e6c2A2F2d2c2 | B8z4
B2d2 | c6d2c2c2B2G2 | F4A4c2f2f2
f2 | =e6d2c2c2B2G2 | F4e4d4
c4 | B6F2D2F2B2B2 | A2G2G4z4
c2d2 | e6c2A2F2d3c | B8z6

